media/theme/theme-2/line.svg

<svg fill="none" height="32" viewBox="0 0 183 32" width="183" xmlns="http://www.w3.org/2000/svg"><path clip-rule="evenodd" d="m90.859 5.39331c.8659-.02538 1.7303.09583 2.5639.35955.1784.32927.3939.63138.641.89888.1109 3.54156-1.6075 2.65744-1.7627 5.39326 2.5362 3.0213 2.6252-.7987 3.0447-3.23596.7012-.50175 1.1196-.98157 2.2434-1.07865.3091.27434.7812.26625 1.1217.53933l.8013 1.25842c.021.62456.0535 1.44396-.1603 1.79776-.254.9124-.7692 1.0414-1.2819 1.618h-2.4037c-.4167.6939-.7532.773-.8012 1.9775.5382.3391.8493.5239 1.7627.5393.7898-.9767 1.6091-2.0884 3.2049-2.1573.2382.188.5132.3111.8012.3596l.961 1.2584c.072 1.7303-.014 2.9985-1.121 3.4157-.381.3432-.8795.3697-1.6027.3596-.7461-.8367-1.7218-2.0291-3.0447-2.1573-.599.538-.9172.3775-.9614 1.618 1.237 1.3069 1.8819.8269 3.6856 1.2584.5804.9719.9735 1.2661.9615 3.0562-.5404.6232-1.0471 1.1913-1.6025 1.7977h-1.2819c-.5314-.5997-1.3371-.8999-1.6025-1.7977-.4301-1.4551.3872-2.6666-.8012-3.236-1.0618-.8706-1.9428.4405-1.923 1.618 1.14 1.4499 1.9457 2.6729 1.4422 5.0337-.7429.5222-2.1775 1.3938-3.2049.5393-.5626-.2139-.5977-.5102-.9614-.8989-.0354-.8391-.2386-1.5219.1602-2.1573.2436-.8124 1.0756-1.6179 1.6025-2.1573-.0535-.5992-.1069-1.1985-.1603-1.7977-.47-.24-.8022-.4414-1.4422-.5393l-.9615 1.0786c-.5978 1.5056.2657 3.1461-1.1217 3.7753-.3939.5377-1.0155.5668-1.9229.5393-.5556-.6062-1.062-1.1746-1.6025-1.7977v-1.618c1.3621-1.6383 1.5685-1.7661 4.0062-1.7978.4025-.6734.6369-.7308.6409-1.9775l-.4807-.1798c-.3037-.2734-.5753-.3216-1.1217-.3595-.7461.8367-1.7218 2.0291-3.0447 2.1573-.1615-.1246-.6409-.2314-.8012-.3596-.7531-.2898-.8079-.8764-1.282-1.4382-.0929-2.6509.6822-3.5194 3.0447-3.4157.5194.7569 1.3398 1.2814 1.9229 1.9775 1.266.0556 1.7876-.1618 1.7627-1.6179-.843-.863-2.3357-.9289-3.6856-1.2585-.7232-1.1133-1.8287-3.54155.1602-4.31458.3545-.37555.7753-.49456 1.4423-.53933.7467.64971 1.5907.68225 1.9229 1.79775.6233 2.09346-.5315 4.56506 2.4037 3.23596.2169-.5375.3173-.908.3205-1.7978l-1.7627-2.15726c-.0231-.84288.0306-1.6862.1602-2.51685zm-61.6944 4.31461c4.8433-.23227 9.0539.27452 12.8196 1.25838h2.564l4.3266.5394c1.098.3236 6.3518 2.4365 6.8905 2.3371.5288-.0975 1.2711-.6942 1.7627-.8989 1.7712-.738 3.7017-1.2525 5.4484-1.7978 3.2166-1.0042 8.8016-1.9687 12.9798-1.43818 1.4244.18085 4.8136.88828 6.0893 1.25838v.5394c.071.4864-.1224 1.4741-.9614 1.618-1.3594-1.2078-4.5409-.9065-6.8906-.8989-5.3568.018-10.1451 1.8876-14.1015 3.7753v.1797c2.2274.3188 6.6423 2.495 8.9737 3.236 4.3204 1.3731 8.3866.4956 12.4991-.5393l.1603.3595c.2704.3804.4373 1.1632.3204 1.4382l-.1602.5393c-1.2647.1978-2.229.7427-3.5254.8989-2.9475.3553-7.9629.4903-10.4159-.1798-2.5103-.659-4.8611-1.3184-7.3713-1.9775-1.2613-.4631-3.5589-1.516-4.8074-1.7977-1.7612.6552-3.4544 1.1146-5.224 1.793-1.7199.484-3.5364.6041-5.1919.9036-1.1217 0-2.0832.1798-3.2049.1798-2.2957.5914-4.8768 1.2773-7.5315 1.2584-1.9983-.0142-4.4452.0372-5.7689 0-1.1217-.0599-2.4036-.1199-3.5254-.1798-3.9929-.6414-7.5488-1.7524-11.2171-3.0562-1.6424-.5837-2.9299-1.3303-4.80738-2.337-1.12588.622-1.39205.8409-2.56392 1.7977-.44131.5778.31793 1.1272-.64098 2.1573-.39068.7159-2.24616.745-2.72417.3596-.8384-.6762-.8525-3.0999 0-3.7753 1.27812-1.0127 2.68731.5379 4.48687-1.2584-.65524-.3616-1.29799-.8682-1.92294-1.2585-.74595.0703-1.36465.4018-2.40368.1798l-.80123-1.0786c-.01553-.7235.03819-1.4468.16025-2.1574l1.12171-1.0786c3.07415-.048 1.9332 1.2404 2.88442 3.0562.6171.6632 1.66206 1.1831 2.72416 1.618.86839-.5018 1.69139-.8437 2.56389-1.2585 3.1447-1.4948 6.7552-2.5497 10.416-3.5955 2.1897-.2995 4.2282-.54218 6.57-.71908zm78.1994-.17978c5.735-.04602 10.623.56016 15.063 2.15726.873.3139 5.258 2.3163 5.929 2.1574.577-.1367 1.32-.6508 1.923-.8989 1.603-.6589 2.361-.811 4.006-1.2585 1.929-.5244 4.373-.4082 6.891-.7191 3.503-.4325 10.133-1.6564 15.384-1.0786 4.801.5284 8.448 1.4991 10.896 2.3371 1.313.4494 3.7 1.5318 7.051 2.8764 1.085-1.0607 2.45-.6113 2.404-3.0562.128-.1836.056-.0493.16-.3596.373-.3595.747-.7191 1.122-1.0786 1.998-.0775 2.791.8153 2.724 3.0562-.423.4528-.878.9643-1.282 1.4382-.708.0248-1.415-.0971-2.083-.3596-.475.6309-1.415.6717-1.763 1.4382.666.1676 1.277.5413 1.763 1.0787.54-.1744 1.447-.6551 2.083-.1798 2.368.8126.968 3.236 0 4.3146-1.247.0658-2.082-.1107-2.404-1.0786-.352-.4306-.343-1.1015-.32-1.9776-1.157-.3272-1.221-.657-3.045-1.4382-2.003 1.0008-3.934 1.6899-5.929 2.5169-7.445 3.0835-17.871 3.9011-26.601 1.618h-2.724l-4.006-.5394c-1.709-.5393-3.098-1.0786-4.807-1.6179-.337-.1408-1.255-.6652-1.603-.7191-.732-.114-1.945.8257-2.564 1.0786-2.038.8329-4.187 1.417-6.249 1.9775-3.626.9856-9.639 1.2764-13.781.8989-1.666-.1519-3.797-.5846-4.007-1.618.087-.291.141-.5929.161-.8988.074-.2562.182-.4986.32-.7191 5.844 2.0773 11.593 1.0445 16.826-.8989 1.254-.4658 3.445-1.3124 4.807-1.9775-1.737-.6713-3.514-1.4341-4.967-1.9776-2.477-.9258-5.132-1.4229-7.852-1.7977-5.925-.8166-8.317.9575-8.814.7191-.404-.2629-.239-.2979-.4-.8748-.079-.3346-.013-.0865-.241-.923 1.037-.5143 2.109-.9351 3.205-1.2584.867-.23965 1.522-.26176 2.724-.35956zm-76.5969 1.43816c-1.2265.0033-2.0363.0112-3.0447.1798-1.6648.2783-4.1093.2943-5.6086 1.0787.5686.4266.6612.8677.641 1.9775.9503.2767 1.3084.8933 2.4037 1.0787 1.8316-1.5623 5.7017-2.4809 8.1725-3.236 1.1192-.3416 2.8032-.5368 3.8459-.7191-1.9762-.1199-4.4337-.2396-6.4098-.3596zm118.1009.1798c-.521.057-2.167.1866-2.564.3596 3.112-.025 7.804 1.5563 10.256 2.6966.781.3633 1.387.8956 2.403 1.0787.508-.5173 1.616-.7999 1.763-1.2585-.131-.764.324-1.3679.641-1.9775-.268 0-1.816-.3596-2.083-.3596-1.508-.4981-7.379-.5454-10.416-.5393zm-80.4433.1798c-1.4967.3775-2.3396.601-3.3651.8989-1.8879.5479-2.742.7967-4.4869 1.4382-.9935.3653-2.4838.6247-3.3652 1.0786.1069 0 .5341.1798.641.1798.7567.6684 1.8749.0113 2.7242-.3595 1.8162-.793 3.4302-1.3543 5.4712-2.064 1.2085-.4204 7.1423-1.3147 8.3099-1.7113-.3205 0-5.6086.5393-5.9291.5393zm44.7083 0c1.162.805 3.704.7371 5.128 1.2584 2.247.8227 4.899 2.0903 6.825 2.8259.117-.1109.815-.4048 1.027-.8483-1.103-.146-2.102-.7344-3.045-1.0787-2.98-1.0894-6.408-2.0207-9.935-2.1573zm-74.1934.8989-4.3266.7191c-2.8901.905-5.8243 1.7325-8.3328 3.0562v.1797c1.2703.6073 5.0852 1.943 7.5315 2.6967 5.3735 1.6555 9.6854.5042 13.7811-1.4382 1.0559-.5007 2.2132-.6884 3.0447-1.4382-3.501-1.7825-6.6962-3.6964-11.6979-3.7753zm103.1974 0c-1.133.1904-2.377.6427-3.525 1.0786-1.888.717-3.867 1.7458-5.608 2.6967v.1797c1.034.1922 1.723.863 2.563 1.2585 2.08.9639 4.223 1.7453 6.41 2.337 3.147.8563 10.152-1.6055 12.179-2.5168 1.069-.4804 2.225-.5214 3.045-1.2584-4.267-2.0959-9.046-3.6766-15.064-3.7753zm-95.5056.1797c.1636.1439.0439.0639.3204.1798-.1636-.1438-.0439-.0638-.3204-.1798zm.4807.1798c.7461.6407 4.609 2.4421 5.7688 2.5169.2875-.3002.6602-.4227 1.1217-.5393v-.1798c-2.3235-.3112-4.2189-1.618-6.8905-1.7978zm85.7309.5394c-1.842.7324-1.377.3701-3.205 1.4382.107 0 .617.4373 1.443.5393 1.53-.4595 3.748-1.8736 5.288-2.3371v-.1798c-.267 0-3.259.5394-3.526.5394zm-113.4533-.3596c-2.0424.5904-6.7579 2.0911-8.3328 3.236 2.6181 1.4622 5.5592 2.7297 8.6533 3.2359-.4873-3.4182 2.2274-1.6956 3.8458-3.4157-.5211-.1293-.8956-.6206-1.2819-.7191-1.0618-.2708-1.6428.7565-2.5639-.8989-.2527-.4052-.1359-1.0247 0-1.4382zm144.5413 0c.187.5843.117 1.1887 0 1.7978-.374.2995-.749.5993-1.122.8988-1.112.3803-1.95-.9913-2.724.7191.489.1419.812.6127 1.122.7191.429.1483.735-.3178.961-.3595.503-.093.851.2517 1.282.3595.402.7074.819 1.2464.481 2.3371h.32c2.859-1.0155 6.035-1.8684 8.013-3.4157-1.576-.7946-1.968-.8705-2.885-1.2584zm-72.5912 1.618c-.3492.4081-.6042.4507-.8013 1.0786-.7345 1.1031.5436 2.457 1.4422 2.3371.9514-.1271 1.3724-1.1387 1.282-2.5168l-.9615-.8989zm-35.5745.8989-1.4422.7191v.1797c.6761.1167 1.2059.5394 1.6025.3596.5559-.1156.8962-.2023 1.1217-.7191-.6133-.0869-.8368-.2958-1.282-.5393zm71.9497 0c-.287.3002-.66.4226-1.121.5393v.3595c.107 0 .374.3596.48.3596.401.2765 1.68.1618 2.084-.7191-.636-.077-.984-.2943-1.443-.5393zm-103.0372 1.4382c-.4072.387-2.2492.9005-2.0832 1.6179.1463 1.1078-.4623 1.3023-.641 1.618 3.5289.7777 7.6437 1.3778 11.5376 1.0787 1.3193-.1014 2.7614-.1798 3.8459-.3596-2.6789-.0077-6.9033-1.7526-9.9352-2.8764-.8973-.3329-1.633-.866-2.7241-1.0786zm33.6515 0c-.2484.2567-.6208.3807-.9615.5393v.1798c1.8428.2419 3.6236 1.2001 5.2881 1.7977 1.5223.5462 2.6945.807 4.3266 1.2584.758.2097 4.6792.8615 5.4483.3596-5.3264-.6281-10.5874-3.1473-14.1015-4.1348zm66.3417 0c-1.514 1.4612-6 2.5057-8.173 3.2359-.997.3351-2.407.1167-3.205.7191 3.338.048 6.642-1.1818 9.295-2.1573 1.198-.4406 2.642-.4536 3.525-1.2584-.504-.2677-.707-.4674-1.442-.5393zm33.811 0c-1.981 1.1455-5.645 2.3164-8.012 3.0561-.881.2753-2.002.5645-4.166.8989 4.966.3718 1.487.1798 6.73.1798 1.659 0 6.864-.4293 8.333-1.0787-.172-.4785-.415-1.3948-.641-1.7977-.619-.6621-1.4-1.1006-2.244-1.2584zm-106.4023.1797c-.8073.8284-3.5945 2.0092-4.8074 2.3371v.1798h.8013c1.6893-1.1905 4.432-.6292 5.929-1.9775-.7914-.1259-1.0432-.4473-1.9229-.5394zm79.0013-.1797c-.288.3002-.981.6024-1.443.7191.164.1438.044.0638.321.1797.62.5428 6.935 2.5951 7.692 2.1573-1.499-.5513-4.964-2.4629-6.57-3.0561zm-84.2894 2.6966c.1636.1438.0439.0638.3205.1798-.1636-.1439-.0439-.0639-.3205-.1798z" fill="#000" fill-rule="evenodd"/></svg>

<svg width="183" height="32" viewBox="0 0 183 32" fill="none" xmlns="http://www.w3.org/2000/svg">
<g id="&#226;&#128;&#148;Pngtree&#226;&#128;&#148;flower pattern decoration dividing line_17101563 1">
<path id="Color Fill 1" fill-rule="evenodd" clip-rule="evenodd" d="M90.859 5.39331C91.7249 5.36793 92.5893 5.48914 93.4229 5.75286C93.6013 6.08213 93.8168 6.38424 94.0639 6.65174C94.1748 10.1933 92.4564 9.30918 92.3012 12.045C94.8374 15.0663 94.9264 11.2463 95.3459 8.80904C96.0471 8.30729 96.4655 7.82747 97.5893 7.73039C97.8984 8.00473 98.3705 7.99664 98.711 8.26972L99.5123 9.52814C99.5333 10.1527 99.5658 10.9721 99.352 11.3259C99.098 12.2383 98.5828 12.3673 98.0701 12.9439H95.6664C95.2497 13.6378 94.9132 13.7169 94.8652 14.9214C95.4034 15.2605 95.7145 15.4453 96.6279 15.4607C97.4177 14.484 98.237 13.3723 99.8328 13.3034C100.071 13.4914 100.346 13.6145 100.634 13.663L101.595 14.9214C101.667 16.6517 101.581 17.9199 100.474 18.3371C100.093 18.6803 99.5945 18.7068 98.8713 18.6967C98.1252 17.86 97.1495 16.6676 95.8266 16.5394C95.2276 17.0774 94.9094 16.9169 94.8652 18.1574C96.1022 19.4643 96.7471 18.9843 98.5508 19.4158C99.1312 20.3877 99.5243 20.6819 99.5123 22.472C98.9719 23.0952 98.4652 23.6633 97.9098 24.2697H96.6279C96.0965 23.67 95.2908 23.3698 95.0254 22.472C94.5953 21.0169 95.4126 19.8054 94.2242 19.236C93.1624 18.3654 92.2814 19.6765 92.3012 20.854C93.4412 22.3039 94.2469 23.5269 93.7434 25.8877C93.0005 26.4099 91.5659 27.2815 90.5385 26.427C89.9759 26.2131 89.9408 25.9168 89.5771 25.5281C89.5417 24.689 89.3385 24.0062 89.7373 23.3708C89.9809 22.5584 90.8129 21.7529 91.3398 21.2135C91.2863 20.6143 91.2329 20.015 91.1795 19.4158C90.7095 19.1758 90.3773 18.9744 89.7373 18.8765L88.7758 19.9551C88.178 21.4607 89.0415 23.1012 87.6541 23.7304C87.2602 24.2681 86.6386 24.2972 85.7312 24.2697C85.1756 23.6635 84.6692 23.0951 84.1287 22.472V20.854C85.4908 19.2157 85.6972 19.0879 88.1349 19.0562C88.5374 18.3828 88.7718 18.3254 88.7758 17.0787L88.2951 16.8989C87.9914 16.6255 87.7198 16.5773 87.1734 16.5394C86.4273 17.3761 85.4516 18.5685 84.1287 18.6967C83.9672 18.5721 83.4878 18.4653 83.3275 18.3371C82.5744 18.0473 82.5196 17.4607 82.0455 16.8989C81.9526 14.248 82.7277 13.3795 85.0902 13.4832C85.6096 14.2401 86.43 14.7646 87.0131 15.4607C88.2791 15.5163 88.8007 15.2989 88.7758 13.8428C87.9328 12.9798 86.4401 12.9139 85.0902 12.5843C84.367 11.471 83.2615 9.04275 85.2504 8.26972C85.6049 7.89417 86.0257 7.77516 86.6927 7.73039C87.4394 8.3801 88.2834 8.41264 88.6156 9.52814C89.2389 11.6216 88.0841 14.0932 91.0193 12.7641C91.2362 12.2266 91.3366 11.8561 91.3398 10.9663L89.5771 8.80904C89.554 7.96616 89.6077 7.12284 89.7373 6.29219L90.859 5.39331ZM29.1646 9.70792C34.0079 9.47565 38.2185 9.98244 41.9842 10.9663H44.5482L48.8748 11.5057C49.9728 11.8293 55.2266 13.9422 55.7653 13.8428C56.2941 13.7453 57.0364 13.1486 57.528 12.9439C59.2992 12.2059 61.2297 11.6914 62.9764 11.1461C66.193 10.1419 71.778 9.1774 75.9562 9.70792C77.3806 9.88877 80.7698 10.5962 82.0455 10.9663V11.5057C82.1165 11.9921 81.9231 12.9798 81.0841 13.1237C79.7247 11.9159 76.5432 12.2172 74.1935 12.2248C68.8367 12.2428 64.0484 14.1124 60.092 16.0001V16.1798C62.3194 16.4986 66.7343 18.6748 69.0657 19.4158C73.3861 20.7889 77.4523 19.9114 81.5648 18.8765L81.7251 19.236C81.9955 19.6164 82.1624 20.3992 82.0455 20.6742L81.8853 21.2135C80.6206 21.4113 79.6563 21.9562 78.3599 22.1124C75.4124 22.4677 70.397 22.6027 67.944 21.9326C65.4337 21.2736 63.0829 20.6142 60.5727 19.9551C59.3114 19.492 57.0138 18.4391 55.7653 18.1574C54.0041 18.8126 52.3109 19.272 50.5413 19.9504C48.8214 20.4344 47.0049 20.5545 45.3494 20.854C44.2277 20.854 43.2662 21.0338 42.1445 21.0338C39.8488 21.6252 37.2677 22.3111 34.613 22.2922C32.6147 22.278 30.1678 22.3294 28.8441 22.2922C27.7224 22.2323 26.4405 22.1723 25.3187 22.1124C21.3258 21.471 17.7699 20.36 14.1016 19.0562C12.4592 18.4725 11.1717 17.7259 9.29422 16.7192C8.16834 17.3412 7.90217 17.5601 6.7303 18.5169C6.28899 19.0947 7.04823 19.6441 6.08932 20.6742C5.69864 21.3901 3.84316 21.4192 3.36515 21.0338C2.52675 20.3576 2.51265 17.9339 3.36515 17.2585C4.64327 16.2458 6.05246 17.7964 7.85202 16.0001C7.19678 15.6385 6.55403 15.1319 5.92908 14.7416C5.18313 14.8119 4.56443 15.1434 3.5254 14.9214L2.72417 13.8428C2.70864 13.1193 2.76236 12.396 2.88442 11.6854L4.00613 10.6068C7.08028 10.5588 5.93933 11.8472 6.89055 13.663C7.50765 14.3262 8.55261 14.8461 9.61471 15.281C10.4831 14.7792 11.3061 14.4373 12.1786 14.0225C15.3233 12.5277 18.9338 11.4728 22.5946 10.427C24.7843 10.1275 26.8228 9.88482 29.1646 9.70792ZM107.364 9.52814C113.099 9.48212 117.987 10.0883 122.427 11.6854C123.3 11.9993 127.685 14.0017 128.356 13.8428C128.933 13.7061 129.676 13.192 130.279 12.9439C131.882 12.285 132.64 12.1329 134.285 11.6854C136.214 11.161 138.658 11.2772 141.176 10.9663C144.679 10.5338 151.309 9.3099 156.56 9.8877C161.361 10.4161 165.008 11.3868 167.456 12.2248C168.769 12.6742 171.156 13.7566 174.507 15.1012C175.592 14.0405 176.957 14.4899 176.911 12.045C177.039 11.8614 176.967 11.9957 177.071 11.6854C177.444 11.3259 177.818 10.9663 178.193 10.6068C180.191 10.5293 180.984 11.4221 180.917 13.663C180.494 14.1158 180.039 14.6273 179.635 15.1012C178.927 15.126 178.22 15.0041 177.552 14.7416C177.077 15.3725 176.137 15.4133 175.789 16.1798C176.455 16.3474 177.066 16.7211 177.552 17.2585C178.092 17.0841 178.999 16.6034 179.635 17.0787C182.003 17.8913 180.603 20.3147 179.635 21.3933C178.388 21.4591 177.553 21.2826 177.231 20.3147C176.879 19.8841 176.888 19.2132 176.911 18.3371C175.754 18.0099 175.69 17.6801 173.866 16.8989C171.863 17.8997 169.932 18.5888 167.937 19.4158C160.492 22.4993 150.066 23.3169 141.336 21.0338H138.612L134.606 20.4944C132.897 19.9551 131.508 19.4158 129.799 18.8765C129.462 18.7357 128.544 18.2113 128.196 18.1574C127.464 18.0434 126.251 18.9831 125.632 19.236C123.594 20.0689 121.445 20.653 119.383 21.2135C115.757 22.1991 109.744 22.4899 105.602 22.1124C103.936 21.9605 101.805 21.5278 101.595 20.4944C101.682 20.2034 101.736 19.9015 101.756 19.5956C101.83 19.3394 101.938 19.097 102.076 18.8765C107.92 20.9538 113.669 19.921 118.902 17.9776C120.156 17.5118 122.347 16.6652 123.709 16.0001C121.972 15.3288 120.195 14.566 118.742 14.0225C116.265 13.0967 113.61 12.5996 110.89 12.2248C104.965 11.4082 102.573 13.1823 102.076 12.9439C101.672 12.681 101.837 12.646 101.676 12.0691C101.597 11.7345 101.663 11.9826 101.435 11.1461C102.472 10.6318 103.544 10.211 104.64 9.8877C105.507 9.64805 106.162 9.62594 107.364 9.52814ZM30.7671 10.9663C29.5406 10.9696 28.7308 10.9775 27.7224 11.1461C26.0576 11.4244 23.6131 11.4404 22.1138 12.2248C22.6824 12.6514 22.775 13.0925 22.7548 14.2023C23.7051 14.479 24.0632 15.0956 25.1585 15.281C26.9901 13.7187 30.8602 12.8001 33.331 12.045C34.4502 11.7034 36.1342 11.5082 37.1769 11.3259C35.2007 11.206 32.7432 11.0863 30.7671 10.9663ZM148.868 11.1461C148.347 11.2031 146.701 11.3327 146.304 11.5057C149.416 11.4807 154.108 13.062 156.56 14.2023C157.341 14.5656 157.947 15.0979 158.963 15.281C159.471 14.7637 160.579 14.4811 160.726 14.0225C160.595 13.2585 161.05 12.6546 161.367 12.045C161.099 12.045 159.551 11.6854 159.284 11.6854C157.776 11.1873 151.905 11.14 148.868 11.1461ZM68.4247 11.3259C66.928 11.7034 66.0851 11.9269 65.0596 12.2248C63.1717 12.7727 62.3176 13.0215 60.5727 13.663C59.5792 14.0283 58.0889 14.2877 57.2075 14.7416C57.3144 14.7416 57.7416 14.9214 57.8485 14.9214C58.6052 15.5898 59.7234 14.9327 60.5727 14.5619C62.3889 13.7689 64.0029 13.2076 66.0439 12.4979C67.2524 12.0775 73.1862 11.1832 74.3538 10.7866C74.0333 10.7866 68.7452 11.3259 68.4247 11.3259ZM113.133 11.3259C114.295 12.1309 116.837 12.063 118.261 12.5843C120.508 13.407 123.16 14.6746 125.086 15.4102C125.203 15.2993 125.901 15.0054 126.113 14.5619C125.01 14.4159 124.011 13.8275 123.068 13.4832C120.088 12.3938 116.66 11.4625 113.133 11.3259ZM38.9396 12.2248L34.613 12.9439C31.7229 13.8489 28.7887 14.6764 26.2802 16.0001V16.1798C27.5505 16.7871 31.3654 18.1228 33.8117 18.8765C39.1852 20.532 43.4971 19.3807 47.5928 17.4383C48.6487 16.9376 49.806 16.7499 50.6375 16.0001C47.1365 14.2176 43.9413 12.3037 38.9396 12.2248ZM142.137 12.2248C141.004 12.4152 139.76 12.8675 138.612 13.3034C136.724 14.0204 134.745 15.0492 133.004 16.0001V16.1798C134.038 16.372 134.727 17.0428 135.567 17.4383C137.647 18.4022 139.79 19.1836 141.977 19.7753C145.124 20.6316 152.129 18.1698 154.156 17.2585C155.225 16.7781 156.381 16.7371 157.201 16.0001C152.934 13.9042 148.155 12.3235 142.137 12.2248ZM46.6314 12.4045C46.795 12.5484 46.6753 12.4684 46.9518 12.5843C46.7882 12.4405 46.9079 12.5205 46.6314 12.4045ZM47.1121 12.5843C47.8582 13.225 51.7211 15.0264 52.8809 15.1012C53.1684 14.801 53.5411 14.6785 54.0026 14.5619V14.3821C51.6791 14.0709 49.7837 12.7641 47.1121 12.5843ZM132.843 13.1237C131.001 13.8561 131.466 13.4938 129.638 14.5619C129.745 14.5619 130.255 14.9992 131.081 15.1012C132.611 14.6417 134.829 13.2276 136.369 12.7641V12.5843C136.102 12.5843 133.11 13.1237 132.843 13.1237ZM19.3897 12.7641C17.3473 13.3545 12.6318 14.8552 11.0569 16.0001C13.675 17.4623 16.6161 18.7298 19.7102 19.236C19.2229 15.8178 21.9376 17.5404 23.556 15.8203C23.0349 15.691 22.6604 15.1997 22.2741 15.1012C21.2123 14.8304 20.6313 15.8577 19.7102 14.2023C19.4575 13.7971 19.5743 13.1776 19.7102 12.7641H19.3897ZM163.931 12.7641C164.118 13.3484 164.048 13.9528 163.931 14.5619C163.557 14.8614 163.182 15.1612 162.809 15.4607C161.697 15.841 160.859 14.4694 160.085 16.1798C160.574 16.3217 160.897 16.7925 161.207 16.8989C161.636 17.0472 161.942 16.5811 162.168 16.5394C162.671 16.4464 163.019 16.7911 163.45 16.8989C163.852 17.6063 164.269 18.1453 163.931 19.236H164.251C167.11 18.2205 170.286 17.3676 172.264 15.8203C170.688 15.0257 170.296 14.9498 169.379 14.5619L163.931 12.7641ZM91.3398 14.3821C90.9906 14.7902 90.7356 14.8328 90.5385 15.4607C89.804 16.5638 91.0821 17.9177 91.9807 17.7978C92.9321 17.6707 93.3531 16.6591 93.2627 15.281L92.3012 14.3821H91.3398ZM55.7653 15.281L54.3231 16.0001V16.1798C54.9992 16.2965 55.529 16.7192 55.9256 16.5394C56.4815 16.4238 56.8218 16.3371 57.0473 15.8203C56.434 15.7334 56.2105 15.5245 55.7653 15.281ZM127.715 15.281C127.428 15.5812 127.055 15.7036 126.594 15.8203V16.1798C126.701 16.1798 126.968 16.5394 127.074 16.5394C127.475 16.8159 128.754 16.7012 129.158 15.8203C128.522 15.7433 128.174 15.526 127.715 15.281ZM24.6778 16.7192C24.2706 17.1062 22.4286 17.6197 22.5946 18.3371C22.7409 19.4449 22.1323 19.6394 21.9536 19.9551C25.4825 20.7328 29.5973 21.3329 33.4912 21.0338C34.8105 20.9324 36.2526 20.854 37.3371 20.6742C34.6582 20.6665 30.4338 18.9216 27.4019 17.7978C26.5046 17.4649 25.7689 16.9318 24.6778 16.7192ZM58.3293 16.7192C58.0809 16.9759 57.7085 17.0999 57.3678 17.2585V17.4383C59.2106 17.6802 60.9914 18.6384 62.6559 19.236C64.1782 19.7822 65.3504 20.043 66.9825 20.4944C67.7405 20.7041 71.6617 21.3559 72.4308 20.854C67.1044 20.2259 61.8434 17.7067 58.3293 16.7192ZM124.671 16.7192C123.157 18.1804 118.671 19.2249 116.498 19.9551C115.501 20.2902 114.091 20.0718 113.293 20.6742C116.631 20.7222 119.935 19.4924 122.588 18.5169C123.786 18.0763 125.23 18.0633 126.113 17.2585C125.609 16.9908 125.406 16.7911 124.671 16.7192ZM158.482 16.7192C156.501 17.8647 152.837 19.0356 150.47 19.7753C149.589 20.0506 148.468 20.3398 146.304 20.6742C151.27 21.046 147.791 20.854 153.034 20.854C154.693 20.854 159.898 20.4247 161.367 19.7753C161.195 19.2968 160.952 18.3805 160.726 17.9776C160.107 17.3155 159.326 16.877 158.482 16.7192V16.7192ZM52.0797 16.8989C51.2724 17.7273 48.4852 18.9081 47.2723 19.236V19.4158H48.0736C49.7629 18.2253 52.5056 18.7866 54.0026 17.4383C53.2112 17.3124 52.9594 16.991 52.0797 16.8989ZM131.081 16.7192C130.793 17.0194 130.1 17.3216 129.638 17.4383C129.802 17.5821 129.682 17.5021 129.959 17.618C130.579 18.1608 136.894 20.2131 137.651 19.7753C136.152 19.224 132.687 17.3124 131.081 16.7192ZM46.7916 19.4158C46.9552 19.5596 46.8355 19.4796 47.1121 19.5956C46.9485 19.4517 47.0682 19.5317 46.7916 19.4158Z" fill="black"/>
</g>
</svg>
